src/assets/icons/home.svg

<svg width="32" height="32" viewBox="0 0 32 32" fill="none" xmlns="http://www.w3.org/2000/svg">
<rect width="32" height="32" rx="10" fill="white"/>
<g clip-path="url(#clip0_6_63)">
<path d="M12.4286 11.3594V9.64062C12.4286 9.35703 12.6576 9.125 12.9375 9.125H14.6339C14.9138 9.125 15.1429 9.35703 15.1429 9.64062V11.3594C15.1429 11.643 14.9138 11.875 14.6339 11.875H12.9375C12.6576 11.875 12.4286 11.643 12.4286 11.3594ZM18.3661 11.875H20.0625C20.3424 11.875 20.5714 11.643 20.5714 11.3594V9.64062C20.5714 9.35703 20.3424 9.125 20.0625 9.125H18.3661C18.0862 9.125 17.8571 9.35703 17.8571 9.64062V11.3594C17.8571 11.643 18.0862 11.875 18.3661 11.875ZM12.9375 16H14.6339C14.9138 16 15.1429 15.768 15.1429 15.4844V13.7656C15.1429 13.482 14.9138 13.25 14.6339 13.25H12.9375C12.6576 13.25 12.4286 13.482 12.4286 13.7656V15.4844C12.4286 15.768 12.6576 16 12.9375 16ZM18.3661 16H20.0625C20.3424 16 20.5714 15.768 20.5714 15.4844V13.7656C20.5714 13.482 20.3424 13.25 20.0625 13.25H18.3661C18.0862 13.25 17.8571 13.482 17.8571 13.7656V15.4844C17.8571 15.768 18.0862 16 18.3661 16ZM15.1429 19.6094V17.8906C15.1429 17.607 14.9138 17.375 14.6339 17.375H12.9375C12.6576 17.375 12.4286 17.607 12.4286 17.8906V19.6094C12.4286 19.893 12.6576 20.125 12.9375 20.125H14.6339C14.9138 20.125 15.1429 19.893 15.1429 19.6094ZM18.3661 20.125H20.0625C20.3424 20.125 20.5714 19.893 20.5714 19.6094V17.8906C20.5714 17.607 20.3424 17.375 20.0625 17.375H18.3661C18.0862 17.375 17.8571 17.607 17.8571 17.8906V19.6094C17.8571 19.893 18.0862 20.125 18.3661 20.125ZM26 25.4531V27H7V25.4531C7 25.1695 7.22902 24.9375 7.50893 24.9375H8.33594V6.03125C8.33594 5.45977 8.78973 5 9.35379 5H23.6462C24.2103 5 24.6641 5.45977 24.6641 6.03125V24.9375H25.4911C25.771 24.9375 26 25.1695 26 25.4531ZM10.3717 24.8945H15.1429V22.0156C15.1429 21.732 15.3719 21.5 15.6518 21.5H17.3482C17.6281 21.5 17.8571 21.732 17.8571 22.0156V24.8945H22.6283V7.10547L10.3929 7.0625L10.3717 24.8945Z" fill="#4FA1C1"/>
</g>
<defs>
<clipPath id="clip0_6_63">
<rect width="19" height="22" fill="white" transform="translate(7 5)"/>
</clipPath>
</defs>
</svg>

<svg xmlns="http://www.w3.org/2000/svg" width="32" height="32" fill="none"><rect width="32" height="32" fill="#fff" rx="10"/><g clip-path="url(#a)"><path fill="#4FA1C1" d="M12.429 11.36V9.64c0-.283.229-.515.508-.515h1.697c.28 0 .509.232.509.516v1.718c0 .284-.23.516-.51.516h-1.695a.514.514 0 0 1-.51-.516Zm5.937.515h1.697c.28 0 .508-.232.508-.516V9.641a.514.514 0 0 0-.509-.516h-1.696a.514.514 0 0 0-.509.516v1.718c0 .284.23.516.51.516ZM12.938 16h1.696c.28 0 .509-.232.509-.516v-1.718a.514.514 0 0 0-.51-.516h-1.695a.514.514 0 0 0-.51.516v1.718c0 .284.23.516.51.516Zm5.428 0h1.697c.28 0 .508-.232.508-.516v-1.718a.514.514 0 0 0-.509-.516h-1.696a.514.514 0 0 0-.509.516v1.718c0 .284.23.516.51.516Zm-3.223 3.61v-1.72a.514.514 0 0 0-.51-.515h-1.695a.514.514 0 0 0-.51.516v1.718c0 .284.23.516.51.516h1.696c.28 0 .509-.232.509-.516Zm3.223.515h1.697c.28 0 .508-.232.508-.516v-1.718a.514.514 0 0 0-.509-.516h-1.696a.514.514 0 0 0-.509.516v1.718c0 .284.23.516.51.516ZM26 25.453V27H7v-1.547c0-.284.229-.515.509-.515h.827V6.03C8.336 5.46 8.79 5 9.354 5h14.292c.564 0 1.018.46 1.018 1.031v18.907h.827c.28 0 .509.232.509.515Zm-15.628-.558h4.77v-2.88c0-.283.23-.515.51-.515h1.696c.28 0 .51.232.51.516v2.879h4.77V7.105l-12.235-.043-.021 17.832Z"/></g><defs><clipPath id="a"><path fill="#fff" d="M7 5h19v22H7z"/></clipPath></defs></svg>
